build/web/dist/spark/icons/UserCheckOutline.svg

<svg viewBox="0 0 24 24" xmlns="http://www.w3.org/2000/svg" data-title="UserCheckOutline" fill="currentColor" stroke="none">
  <path fill-rule="evenodd" clip-rule="evenodd" d="M21.5996 12.5843C22.0416 12.9154 22.1315 13.5421 21.8004 13.9842L16.0959 21.5995C15.9369 21.8118 15.7001 21.9522 15.4375 21.9899 15.175 22.0275 14.9083 21.9594 14.696 21.8003L10.8884 18.948C10.4464 18.6169 10.3565 17.9902 10.6876 17.5482 11.0187 17.1061 11.6454 17.0162 12.0874 17.3474L15.0947 19.6001 20.1997 12.7851C20.5308 12.3431 21.1576 12.2532 21.5996 12.5843ZM9.23066 3.99999C8.0624 3.99999 7.11532 4.94707 7.11532 6.11537 7.11532 7.28368 8.0624 8.23075 9.23066 8.23075 10.3989 8.23075 11.346 7.28368 11.346 6.11537 11.346 4.94707 10.3989 3.99999 9.23066 3.99999ZM5.11533 6.11537C5.11533 3.84253 6.95781 2 9.23066 2 11.5035 2 13.346 3.84253 13.346 6.11537 13.346 8.38822 11.5035 10.2307 9.23066 10.2307 6.95781 10.2307 5.11533 8.38822 5.11533 6.11537Z"/>
  <path fill-rule="evenodd" clip-rule="evenodd" d="M10.2498 13.5169C9.23581 13.3154 8.18481 13.419 7.2296 13.8145C6.27438 14.21 5.4578 14.8798 4.88298 15.7391C4.30825 16.5983 4.00098 17.6086 3.99999 18.6423V19.7188H6.46148C7.01376 19.7188 7.46147 20.1665 7.46147 20.7188C7.46147 21.2711 7.01376 21.7188 6.46148 21.7188H2.99999C2.44771 21.7188 2 21.2711 2 20.7188L2 18.641C2.00126 17.2118 2.42601 15.8151 3.22061 14.6272C4.01521 13.4392 5.14401 12.5134 6.46446 11.9667C7.78491 11.4199 9.23777 11.2767 10.6395 11.5552C12.0413 11.8337 13.3291 12.5213 14.3403 13.5313C14.7311 13.9216 14.7315 14.5547 14.3412 14.9455C13.9509 15.3363 13.3178 15.3366 12.927 14.9464C12.1955 14.2158 11.2639 13.7183 10.2498 13.5169Z"/>
</svg>

<svg viewBox="0 0 24 24" xmlns="http://www.w3.org/2000/svg" data-title="UserCheckOutline" fill="currentColor" stroke="none">
  <path d="m21.6,12.58c.44.33.53.96.2,1.4l-5.7,7.62c-.16.21-.4.35-.66.39-.26.04-.53-.03-.74-.19l-3.81-2.85c-.44-.33-.53-.96-.2-1.4.33-.44.96-.53,1.4-.2l3.01,2.25,5.1-6.81c.33-.44.96-.53,1.4-.2ZM9.23,4c-1.17,0-2.12.95-2.12,2.12s.95,2.12,2.12,2.12,2.12-.95,2.12-2.12-.95-2.12-2.12-2.12Zm-4.12,2.12c0-2.27,1.84-4.12,4.12-4.12s4.12,1.84,4.12,4.12-1.84,4.12-4.12,4.12-4.12-1.84-4.12-4.12Z"/>
  <path d="m10.25,13.52c-1.01-.2-2.06-.1-3.02.3-.96.4-1.77,1.07-2.35,1.92-.57.86-.88,1.87-.88,2.9v1.08h2.46c.55,0,1,.45,1,1s-.45,1-1,1h-3.46c-.55,0-1-.45-1-1v-2.08c0-1.43.43-2.83,1.22-4.01.79-1.19,1.92-2.11,3.24-2.66,1.32-.55,2.77-.69,4.18-.41,1.4.28,2.69.97,3.7,1.98.39.39.39,1.02,0,1.41-.39.39-1.02.39-1.41,0-.73-.73-1.66-1.23-2.68-1.43Z"/>
</svg>
